596c8177a7e82d1205764171_art_clipboard.svg

<svg xmlns="http://www.w3.org/2000/svg" width="602" height="777" viewBox="0 0 602 777" xmlns:xlink="http://www.w3.org/1999/xlink">
  <defs>
    <rect id="a" width="582" height="650" y="112" rx="6"/>
    <path id="b" d="M28,144.002741 C28,141.792088 29.7877937,140 31.9942551,140 L546.005745,140 C548.211711,140 550,141.796465 550,143.994232 L550,646.036042 C550,648.241995 548.728947,651.302553 547.168325,652.864683 L472.939097,727.165591 C471.375206,728.730992 468.326122,730 466.11622,730 L31.9912017,730 C29.7869218,730 28,728.201257 28,725.997259 L28,144.002741 Z"/>
    <path id="c" d="M551.169105,652.830895 C552.732565,651.267435 554,651.793321 554,653.994984 L554,730.005016 C554,732.211385 552.206679,734 550.005016,734 L473.994984,734 C471.788615,734 471.269173,732.730827 472.830895,731.169105 L551.169105,652.830895 Z"/>
    <path id="d" d="M245,60 C245,26.862915 271.862915,0 305,0 C338.137085,0 365,26.862915 365,60 L441.001518,60 C443.209819,60 445,61.7894608 445,63.9926147 L445,176.007385 C445,178.212445 443.211975,180 441.001518,180 L168.998482,180 C166.790181,180 165,178.210539 165,176.007385 L165,63.9926147 C165,61.7875545 166.788025,60 168.998482,60 L245,60 Z M305,92 C322.673112,92 337,77.673112 337,60 C337,42.326888 322.673112,28 305,28 C287.326888,28 273,42.326888 273,60 C273,77.673112 287.326888,92 305,92 Z"/>
  </defs>
  <g fill="none" fill-rule="evenodd" transform="translate(5)">
    <rect width="582" height="650" x="15" y="127" fill="#DEE4E4" opacity=".4" rx="6"/>
    <use fill="#DEE4E4" xlink:href="#a"/>
    <rect width="586.4" height="654.4" x="-2.2" y="109.8" stroke="#717D7E" stroke-width="4.4" rx="6"/>
    <use fill="#FFFFFF" xlink:href="#b"/>
    <path stroke="#98A6A7" stroke-width="4" d="M26,144.002741 L26,725.997259 C26,729.306323 28.682831,732 31.9912017,732 L466.11622,732 C468.855666,732 472.4141,730.520888 474.353992,728.579122 L548.583221,654.278213 C550.519221,652.340344 552,648.77108 552,646.036042 L552,143.994232 C552,140.689698 549.314088,138 546.005745,138 L31.9942551,138 C28.6824056,138 26,140.688334 26,144.002741 Z"/>
    <g transform="rotate(-180 512 692)">
      <use fill="#98A6A7" xlink:href="#c"/>
      <path stroke="#98A6A7" stroke-width="4" d="M552,654.828427 L552,730.005016 C552,731.104827 551.104099,732 550.005016,732 L474.828427,732 L552,654.828427 Z"/>
    </g>
    <path fill="#98A6A7" d="M545,642.297454 C545,642.297454 553.825195,641.628183 553.825195,642.297454 C553.825195,642.966725 545,646.71054 545,646.71054 L545,722.296184 C545,724.506024 543.216809,726.297454 541.005166,726.297454 L464.994984,726.297454 L461,734.755462 C461,734.755462 461,730.303536 461,730.303536 C461,728.091038 461,724.507902 461,722.299373 L461,712.963503 C461,710.755424 462.267704,707.700516 463.828299,706.143365 L524.987131,645.119511 C526.549157,643.560932 529.605848,642.297454 531.82276,642.297454 L545,642.297454 Z" opacity=".3" transform="rotate(-180 507.413 688.378)"/>
    <path stroke="#FFFFFF" stroke-width="4" d="M8.5 754L236.677562 754M8 684.5L8 753.615845" stroke-linecap="round" stroke-linejoin="round"/>
    <path fill="#98A6A7" d="M255,70 C255,36.862915 281.862915,10 315,10 C348.137085,10 375,36.862915 375,70 L451.001518,70 C453.209819,70 455,71.7894608 455,73.9926147 L455,186.007385 C455,188.212445 453.211975,190 451.001518,190 L178.998482,190 C176.790181,190 175,188.210539 175,186.007385 L175,73.9926147 C175,71.7875545 176.788025,70 178.998482,70 L255,70 Z M315,102 C332.673112,102 347,87.673112 347,70 C347,52.326888 332.673112,38 315,38 C297.326888,38 283,52.326888 283,70 C283,87.673112 297.326888,102 315,102 Z" opacity=".295"/>
    <use fill="#98A6A7" xlink:href="#d"/>
    <path stroke="#4E5F60" stroke-width="4" d="M247,60 C247,27.9674845 272.967485,2 305,2 C337.032515,2 363,27.9674845 363,60 L363,62 L365,62 L441.001518,62 C442.1051,62 443,62.893882 443,63.9926147 L443,176.007385 C443,177.108129 442.107151,178 441.001518,178 L168.998482,178 C167.8949,178 167,177.106118 167,176.007385 L167,63.9926147 C167,62.891871 167.892849,62 168.998482,62 L245,62 L247,62 L247,60 Z M305,94 C323.777681,94 339,78.7776815 339,60 C339,41.2223185 323.777681,26 305,26 C286.222319,26 271,41.2223185 271,60 C271,78.7776815 286.222319,94 305,94 Z"/>
    <path stroke="#FFFFFF" stroke-width="4" d="M177.5 169L405.677562 169M248 74C248 74 249.101563 119 306.133186 119M177 99.5L177 168.615845" stroke-linecap="round" stroke-linejoin="round"/>
  </g>
</svg>

<svg xmlns="http://www.w3.org/2000/svg" width="602" height="777" xmlns:xlink="http://www.w3.org/1999/xlink"><defs><rect id="a" width="582" height="650" y="112" rx="6"/><path id="b" d="M28 144.003A3.998 3.998 0 0 1 31.994 140h514.012a4 4 0 0 1 3.994 3.994v502.042c0 2.206-1.271 5.267-2.832 6.829l-74.229 74.3c-1.564 1.566-4.613 2.835-6.823 2.835H31.991A4.001 4.001 0 0 1 28 725.997V144.003z"/><path id="c" d="M551.17 652.83c1.563-1.563 2.83-1.037 2.83 1.165v76.01a3.998 3.998 0 0 1-3.995 3.995h-76.01c-2.206 0-2.726-1.27-1.164-2.83l78.338-78.34z"/><path id="d" d="M245 60c0-33.137 26.863-60 60-60s60 26.863 60 60h76.002A3.997 3.997 0 0 1 445 63.993v112.014a3.994 3.994 0 0 1-3.998 3.993H168.998a3.997 3.997 0 0 1-3.998-3.993V63.993A3.994 3.994 0 0 1 168.998 60H245zm60 32c17.673 0 32-14.327 32-32 0-17.673-14.327-32-32-32-17.673 0-32 14.327-32 32 0 17.673 14.327 32 32 32z"/></defs><g fill="none" fill-rule="evenodd" transform="translate(5)"><rect width="582" height="650" x="15" y="127" fill="#DEE4E4" opacity=".4" rx="6"/><use fill="#DEE4E4" xlink:href="#a"/><rect width="586.4" height="654.4" x="-2.2" y="109.8" stroke="#717D7E" stroke-width="4.4" rx="6"/><use fill="#FFF" xlink:href="#b"/><path stroke="#98A6A7" stroke-width="4" d="M26 144.003v581.994c0 3.31 2.683 6.003 5.991 6.003h434.125c2.74 0 6.298-1.48 8.238-3.42l74.23-74.302c1.935-1.938 3.416-5.507 3.416-8.242V143.994a6 6 0 0 0-5.994-5.994H31.994A5.998 5.998 0 0 0 26 144.003z"/><g transform="rotate(-180 512 692)"><use fill="#98A6A7" xlink:href="#c"/><path stroke="#98A6A7" stroke-width="4" d="M552 654.828v75.177c0 1.1-.896 1.995-1.995 1.995h-75.177L552 654.828z"/></g><path fill="#98A6A7" d="M469.826 734.459s-8.825.669-8.825 0c0-.67 8.825-4.414 8.825-4.414V654.46a3.995 3.995 0 0 1 3.995-4.001h76.01l3.995-8.458v21.791c0 2.209-1.268 5.263-2.828 6.82l-61.16 61.024c-1.561 1.56-4.618 2.823-6.835 2.823h-13.177z" opacity=".3"/><path stroke="#FFF" stroke-width="4" d="M8.5 754h228.178M8 684.5v69.116" stroke-linecap="round" stroke-linejoin="round"/><path fill="#98A6A7" d="M255 70c0-33.137 26.863-60 60-60s60 26.863 60 60h76.002A3.997 3.997 0 0 1 455 73.993v112.014a3.994 3.994 0 0 1-3.998 3.993H178.998a3.997 3.997 0 0 1-3.998-3.993V73.993A3.994 3.994 0 0 1 178.998 70H255zm60 32c17.673 0 32-14.327 32-32 0-17.673-14.327-32-32-32-17.673 0-32 14.327-32 32 0 17.673 14.327 32 32 32z" opacity=".295"/><use fill="#98A6A7" xlink:href="#d"/><path stroke="#4E5F60" stroke-width="4" d="M247 60c0-32.033 25.967-58 58-58s58 25.967 58 58v2h78.002c1.103 0 1.998.894 1.998 1.993v112.014c0 1.101-.893 1.993-1.998 1.993H168.998a1.997 1.997 0 0 1-1.998-1.993V63.993c0-1.101.893-1.993 1.998-1.993H247v-2zm58 34c18.778 0 34-15.222 34-34s-15.222-34-34-34-34 15.222-34 34 15.222 34 34 34z"/><path stroke="#FFF" stroke-width="4" d="M177.5 169h228.178M248 74s1.102 45 58.133 45M177 99.5v69.116" stroke-linecap="round" stroke-linejoin="round"/></g></svg>
